X: 29370
T: Newmarket, The
R: polka
M: 2/4
K: Gmajor
|:B|de/d/ Bd/B/|AD G>B|AD GA|BA AB|
d2 Bd/B/|AD G2|AD G>A|BG G:|
|:B|de/f/ gg|fe e>d|B/c/d ef|ed dB/c/|
d2 g/a/g/e/|fe ed|Bd ef|g2- g:|

